build/images/icon-section/sprite.svg

<svg aria-hidden="true" style="position: absolute; width: 0; height: 0; overflow: hidden;" version="1.1" 
  xmlns="http://www.w3.org/2000/svg" 
  xmlns:xlink="http://www.w3.org/1999/xlink">
  <defs>
    <symbol id="icon-1" viewBox="0 0 32 32">
      <path d="M30.74 10c-1.624-3.714-4.528-6.617-8.142-8.2l-0.101-0.040c0.989-0.787 2.257-1.262 3.636-1.262 3.241 0 5.868 2.627 5.868 5.868 0 1.378-0.475 2.645-1.27 3.646l0.009-0.012zM30.5 16.5c0 0.001 0 0.001 0 0.002 0 3.854-1.509 7.355-3.969 9.944l0.006-0.006 2.029 2.030c0.268 0.268 0.434 0.639 0.434 1.048 0 0.819-0.663 1.482-1.482 1.482-0 0-0.001 0-0.001 0h0c-0.409-0.002-0.779-0.166-1.049-0.43l-2.178-2.18c-2.311 1.633-5.186 2.61-8.29 2.61-3.098 0-5.968-0.973-8.322-2.631l0.046 0.031-2.163 2.16c-0.273 0.283-0.656 0.458-1.079 0.458-0.828 0-1.5-0.672-1.5-1.5 0-0.423 0.175-0.805 0.457-1.078l2.012-2.010c-2.441-2.588-3.941-6.087-3.941-9.936 0-8.005 6.49-14.495 14.495-14.495s14.495 6.49 14.495 14.495c0 0.002 0 0.004 0 0.006v-0zM16 5c-6.351 0-11.5 5.149-11.5 11.5s5.149 11.5 11.5 11.5c6.351 0 11.5-5.149 11.5-11.5v0c0-6.351-5.149-11.5-11.5-11.5v0zM22 18h-6c-0.828 0-1.5-0.672-1.5-1.5v0-8c0-0.828 0.672-1.5 1.5-1.5s1.5 0.672 1.5 1.5v0 6.5h4.5c0.828 0 1.5 0.672 1.5 1.5s-0.672 1.5-1.5 1.5v0zM1.287 10.21c-0.801-1.010-1.284-2.304-1.284-3.71 0-3.313 2.685-5.999 5.997-6h0c0.003 0 0.008 0 0.012 0 1.402 0 2.691 0.486 3.706 1.299l-0.012-0.009c-3.797 1.655-6.765 4.622-8.379 8.317l-0.040 0.103z"></path>
    </symbol>
    <symbol id="icon-2" viewBox="0 0 32 32">
      <path d="M30.5 32h-29c-0.828 0-1.5-0.672-1.5-1.5v0-29c0-0.828 0.672-1.5 1.5-1.5v0h29c0.828 0 1.5 0.672 1.5 1.5v0 29c0 0.828-0.672 1.5-1.5 1.5v0zM29 3h-26v26h26v-26zM5.215 16.24v0l4-2.5c0.225-0.138 0.497-0.22 0.789-0.22 0.311 0 0.601 0.093 0.842 0.253l-0.006-0.004h0.006l6.631 4.42 7.638-5.4c0.244-0.179 0.55-0.286 0.881-0.286 0.829 0 1.501 0.672 1.501 1.501 0 0.498-0.242 0.939-0.615 1.212l-0.004 0.003-8.5 6c-0.242 0.18-0.547 0.289-0.878 0.29h-0c-0.323-0.003-0.622-0.107-0.865-0.283l0.004 0.003-6.657-4.43-3.135 1.95c-0.236 0.169-0.529 0.27-0.847 0.27h-0c-0.001 0-0.002 0-0.003 0-0.828 0-1.5-0.672-1.5-1.5 0-0.539 0.284-1.012 0.712-1.276l0.006-0.004z"></path>
    </symbol>
    <symbol id="icon-3" viewBox="0 0 32 32">
      <path d="M30.452 25.29h-9.806v2.581l2.065 2.065v0.516h-13.419v-0.516l2.065-2.065v-2.581h-9.806c-0.855 0-1.548-0.693-1.548-1.548v0-20.645c0-0.855 0.693-1.548 1.548-1.548v0h28.903c0.855 0 1.548 0.693 1.548 1.548v0 20.645c0 0.855-0.693 1.548-1.548 1.548v0zM29.935 3.613h-27.871v17.548h27.871v-17.548zM12.903 10.839c0.427 0.001 0.814 0.174 1.094 0.454l0.97 0.97 3.035-3.035c0.283-0.304 0.686-0.493 1.133-0.493 0.855 0 1.548 0.693 1.548 1.548 0 0.447-0.189 0.849-0.492 1.132l-0.001 0.001-4.129 4.129c-0.28 0.28-0.667 0.453-1.094 0.453s-0.814-0.173-1.094-0.453l-2.065-2.065c-0.28-0.28-0.453-0.667-0.453-1.094 0-0.855 0.692-1.548 1.547-1.548h0z"></path>
    </symbol>
    <symbol id="icon-4" viewBox="0 0 32 32">
      <path d="M31.065 25.89l-14.471 5.99c-0.175 0.076-0.38 0.12-0.594 0.12s-0.419-0.044-0.604-0.124l0.010 0.004-14.471-5.99c-0.553-0.229-0.935-0.765-0.935-1.39 0-0 0-0 0-0v0-23c0-0.828 0.672-1.5 1.5-1.5v0c0.206 0 0.403 0.040 0.583 0.114l-0.010-0.004c0.001 0.006 0.006 0.010 0.012 0.010 0 0 0.001-0 0.001-0h-0l13.914 5.76 13.911-5.76c0 0 0.001 0 0.001 0 0.006 0 0.011-0.004 0.012-0.010v-0c0.17-0.070 0.367-0.11 0.573-0.11h0c0.828 0 1.5 0.672 1.5 1.5v0 23c0 0 0 0.001 0 0.002 0 0.624-0.381 1.158-0.922 1.385l-0.010 0.004zM14.5 8.5l-11.5-4.76v19.76l11.5 4.76v-19.76zM29 3.74l-11.5 4.76v19.76l11.5-4.76v-19.76zM19.879 10.63l5.5-2.5c0.183-0.081 0.396-0.129 0.62-0.13h0c0.003-0 0.007-0 0.010-0 0.828 0 1.5 0.672 1.5 1.5 0 0.607-0.361 1.13-0.88 1.366l-0.009 0.004-5.5 2.5c-0.183 0.081-0.396 0.128-0.62 0.13h-0.001c-0.003 0-0.007 0-0.010 0-0.828 0-1.5-0.672-1.5-1.5 0-0.607 0.361-1.13 0.88-1.366l0.009-0.004zM19.879 16.13v0l5.5-2.5c0.183-0.081 0.396-0.129 0.62-0.13h0c0.003-0 0.007-0 0.010-0 0.828 0 1.5 0.672 1.5 1.5 0 0.607-0.361 1.13-0.88 1.366l-0.009 0.004-5.5 2.5v-0.010c-0.182 0.088-0.395 0.14-0.62 0.14-0 0-0 0-0.001 0h0c-0.003 0-0.007 0-0.010 0-0.828 0-1.5-0.672-1.5-1.5 0-0.607 0.361-1.13 0.88-1.366l0.009-0.004zM19.879 21.63v0l5.5-2.5c0.183-0.081 0.396-0.129 0.62-0.13h0c0.003-0 0.007-0 0.010-0 0.828 0 1.5 0.672 1.5 1.5 0 0.607-0.361 1.13-0.88 1.366l-0.009 0.004-5.5 2.5c-0.183 0.081-0.396 0.128-0.62 0.13h-0.001c-0.003 0-0.007 0-0.010 0-0.828 0-1.5-0.672-1.5-1.5 0-0.607 0.361-1.13 0.88-1.366l0.009-0.004zM6 8c0.225 0.002 0.438 0.049 0.631 0.134l-0.010-0.004 5.5 2.5c0.528 0.24 0.889 0.763 0.889 1.37 0 0.828-0.672 1.5-1.5 1.5-0.004 0-0.007 0-0.011-0h0.001c-0.225-0.001-0.438-0.049-0.631-0.134l0.010 0.004-5.5-2.5c-0.528-0.24-0.889-0.763-0.889-1.37 0-0.828 0.672-1.5 1.5-1.5 0.004 0 0.007 0 0.011 0h-0.001zM6 13.5c0.225 0.002 0.438 0.049 0.631 0.134l-0.010-0.004 5.5 2.5c0.528 0.24 0.889 0.763 0.889 1.37 0 0.828-0.672 1.5-1.5 1.5-0.004 0-0.007 0-0.011-0h0.001c-0.001 0-0.001 0-0.002 0-0.225 0-0.438-0.052-0.628-0.144l0.009 0.004v0.010l-5.5-2.5c-0.528-0.24-0.889-0.763-0.889-1.37 0-0.828 0.672-1.5 1.5-1.5 0.004 0 0.007 0 0.011 0h-0.001zM6 19c0.225 0.002 0.438 0.049 0.631 0.134l-0.010-0.004 5.5 2.5c0.528 0.24 0.889 0.763 0.889 1.37 0 0.828-0.672 1.5-1.5 1.5-0.004 0-0.007 0-0.011-0h0.001c-0.225-0.001-0.438-0.049-0.631-0.134l0.010 0.004-5.5-2.5c-0.528-0.24-0.889-0.763-0.889-1.37 0-0.828 0.672-1.5 1.5-1.5 0.004 0 0.007 0 0.011 0h-0.001z"></path>
    </symbol>
    <symbol id="icon-5" viewBox="0 0 32 32">
      <path d="M32 16.5c0 0.002 0 0.004 0 0.006 0 0.825-0.668 1.493-1.493 1.493-0.398 0-0.76-0.156-1.028-0.41l0.001 0.001v0.010l-13.477-13.48-13.446 13.45c-0.272 0.264-0.643 0.428-1.053 0.43h-0c-0.828 0-1.5-0.672-1.5-1.5v0c0-0.002-0-0.005-0-0.007 0-0.422 0.177-0.803 0.46-1.072l0.001-0.001 14.458-14.46c0.274-0.283 0.657-0.459 1.081-0.46h0.092c0.023 0 0.045 0.010 0.068 0.010v0c0.371 0.040 0.696 0.213 0.932 0.469l0.001 0.001 5.9 5.9v-1.38c0-0.828 0.672-1.5 1.5-1.5s1.5 0.672 1.5 1.5v0 4.38l5.6 5.6c0.25 0.265 0.403 0.623 0.403 1.017 0 0.001 0 0.002 0 0.003v-0zM29 19v10.5c0 0.828-0.672 1.5-1.5 1.5v0h-3v-12h-6v12h-14c-0.828 0-1.5-0.672-1.5-1.5v0-10.5l13-13zM13.5 19h-6v6h6v-6z"></path>
    </symbol>
    <symbol id="icon-6" viewBox="0 0 32 32">
      <path d="M30.5 32h-29c-0.828 0-1.5-0.672-1.5-1.5v0-29c0-0.828 0.672-1.5 1.5-1.5v0h29c0.828 0 1.5 0.672 1.5 1.5v0 29c0 0.828-0.672 1.5-1.5 1.5v0zM29 3h-26v26h26v-26zM6.5 4.5h5.5c0.828 0 1.5 0.672 1.5 1.5s-0.672 1.5-1.5 1.5v0h-4.5v4.5c0 0.828-0.672 1.5-1.5 1.5s-1.5-0.672-1.5-1.5v0 0-7.5h2zM4.5 20v0c0-0.828 0.672-1.5 1.5-1.5s1.5 0.672 1.5 1.5v0 0 4.5h4.5c0.828 0 1.5 0.672 1.5 1.5s-0.672 1.5-1.5 1.5v0h-7.5v-7.5zM20 4.5h7.5v7.5c0 0.828-0.672 1.5-1.5 1.5s-1.5-0.672-1.5-1.5v0 0-4.5h-4.5c-0.828 0-1.5-0.672-1.5-1.5s0.672-1.5 1.5-1.5v0zM20 24.5h4.5v-4.5c0-0.828 0.672-1.5 1.5-1.5s1.5 0.672 1.5 1.5v0 0 7.5h-7.5c-0.828 0-1.5-0.672-1.5-1.5s0.672-1.5 1.5-1.5v0z"></path>
    </symbol>
  </defs>
</svg>

<svg aria-hidden="true" style="position:absolute;width:0;height:0" xmlns="http://www.w3.org/2000/svg" overflow="hidden"><defs><symbol id="icon-1" viewBox="0 0 32 32"><path d="M30.74 10c-1.624-3.714-4.528-6.617-8.142-8.2l-.101-.04A5.828 5.828 0 0126.133.498a5.868 5.868 0 014.598 9.514L30.74 10zm-.24 6.5v.002c0 3.854-1.509 7.355-3.969 9.944l.006-.006 2.029 2.03A1.481 1.481 0 0127.518 31h-.001a1.506 1.506 0 01-1.049-.43l-2.178-2.18A14.35 14.35 0 0116 31a14.4 14.4 0 01-8.322-2.631l.046.031-2.163 2.16a1.5 1.5 0 11-2.122-2.12l2.012-2.01a14.438 14.438 0 01-3.941-9.936C1.51 8.489 8 1.999 16.005 1.999S30.5 8.489 30.5 16.494v.006zM16 5C9.649 5 4.5 10.149 4.5 16.5S9.649 28 16 28s11.5-5.149 11.5-11.5S22.351 5 16 5zm6 13h-6a1.5 1.5 0 01-1.5-1.5v-8a1.5 1.5 0 013 0V15H22a1.5 1.5 0 010 3zM1.287 10.21A5.96 5.96 0 01.003 6.5 6 6 0 016 .5h.012c1.402 0 2.691.486 3.706 1.299l-.012-.009c-3.797 1.655-6.765 4.622-8.379 8.317l-.04.103z"/></symbol><symbol id="icon-2" viewBox="0 0 32 32"><path d="M30.5 32h-29A1.5 1.5 0 010 30.5v-29A1.5 1.5 0 011.5 0h29A1.5 1.5 0 0132 1.5v29a1.5 1.5 0 01-1.5 1.5zM29 3H3v26h26V3zM5.215 16.24l4-2.5a1.518 1.518 0 011.631.033l-.006-.004h.006l6.631 4.42 7.638-5.4a1.501 1.501 0 011.767 2.427l-.004.003-8.5 6c-.242.18-.547.289-.878.29a1.494 1.494 0 01-.865-.283l.004.003-6.657-4.43-3.135 1.95c-.236.169-.529.27-.847.27h-.003a1.5 1.5 0 01-.788-2.776l.006-.004z"/></symbol><symbol id="icon-3" viewBox="0 0 32 32"><path d="M30.452 25.29h-9.806v2.581l2.065 2.065v.516H9.292v-.516l2.065-2.065V25.29H1.551a1.548 1.548 0 01-1.548-1.548V3.097c0-.855.693-1.548 1.548-1.548h28.903c.855 0 1.548.693 1.548 1.548v20.645c0 .855-.693 1.548-1.548 1.548zm-.517-21.677H2.064v17.548h27.871V3.613zm-17.032 7.226c.427.001.814.174 1.094.454l.97.97 3.035-3.035a1.548 1.548 0 112.189 2.187l-.001.001-4.129 4.129c-.28.28-.667.453-1.094.453s-.814-.173-1.094-.453l-2.065-2.065a1.547 1.547 0 011.094-2.642z"/></symbol><symbol id="icon-4" viewBox="0 0 32 32"><path d="M31.065 25.89l-14.471 5.99a1.52 1.52 0 01-1.198-.004l.01.004L.935 25.89A1.503 1.503 0 010 24.5v-23A1.5 1.5 0 011.5 0c.206 0 .403.04.583.114L2.073.11c.001.006.006.01.012.01h.001L16 5.88 29.911.12h.001a.012.012 0 00.012-.01c.17-.07.367-.11.573-.11a1.5 1.5 0 011.5 1.5v23.002c0 .624-.381 1.158-.922 1.385l-.01.004zM14.5 8.5L3 3.74V23.5l11.5 4.76V8.5zM29 3.74L17.5 8.5v19.76L29 23.5V3.74zm-9.121 6.89l5.5-2.5c.183-.081.396-.129.62-.13h.01a1.5 1.5 0 01.62 2.866l-.009.004-5.5 2.5a1.575 1.575 0 01-.62.13h-.011a1.5 1.5 0 01-.62-2.866l.009-.004zm0 5.5l5.5-2.5c.183-.081.396-.129.62-.13h.01a1.5 1.5 0 01.62 2.866l-.009.004-5.5 2.5v-.01a1.43 1.43 0 01-.62.14h-.011a1.5 1.5 0 01-.62-2.866l.009-.004zm0 5.5l5.5-2.5c.183-.081.396-.129.62-.13h.01a1.5 1.5 0 01.62 2.866l-.009.004-5.5 2.5a1.575 1.575 0 01-.62.13h-.011a1.5 1.5 0 01-.62-2.866l.009-.004zM6 8c.225.002.438.049.631.134l-.01-.004 5.5 2.5a1.5 1.5 0 01-.611 2.87h-.011.001a1.578 1.578 0 01-.631-.134l.01.004-5.5-2.5A1.5 1.5 0 015.99 8h.011H6zm0 5.5c.225.002.438.049.631.134l-.01-.004 5.5 2.5A1.5 1.5 0 0111.51 19h-.011.001-.002c-.225 0-.438-.052-.628-.144l.009.004v.01l-5.5-2.5a1.5 1.5 0 01.611-2.87h.011H6zM6 19c.225.002.438.049.631.134l-.01-.004 5.5 2.5a1.5 1.5 0 01-.611 2.87h-.011.001a1.578 1.578 0 01-.631-.134l.01.004-5.5-2.5A1.5 1.5 0 015.99 19h.011H6z"/></symbol><symbol id="icon-5" viewBox="0 0 32 32"><path d="M32 16.5v.006a1.492 1.492 0 01-2.521 1.083l.001.001v.01L16.003 4.12 2.557 17.57A1.5 1.5 0 01.004 16.5v-.007c0-.422.177-.803.46-1.072l.001-.001L14.923.96A1.505 1.505 0 0116.004.5h.092c.023 0 .045.01.068.01.371.04.696.213.932.469l.001.001 5.9 5.9V5.5a1.5 1.5 0 013 0v4.38l5.6 5.6c.25.265.403.623.403 1.017v.003zM29 19v10.5a1.5 1.5 0 01-1.5 1.5h-3V19h-6v12h-14A1.5 1.5 0 013 29.5V19L16 6zm-15.5 0h-6v6h6v-6z"/></symbol><symbol id="icon-6" viewBox="0 0 32 32"><path d="M30.5 32h-29A1.5 1.5 0 010 30.5v-29A1.5 1.5 0 011.5 0h29A1.5 1.5 0 0132 1.5v29a1.5 1.5 0 01-1.5 1.5zM29 3H3v26h26V3zM6.5 4.5H12a1.5 1.5 0 010 3H7.5V12a1.5 1.5 0 01-3 0V4.5h2zM4.5 20a1.5 1.5 0 013 0v4.5H12a1.5 1.5 0 010 3H4.5V20zM20 4.5h7.5V12a1.5 1.5 0 01-3 0V7.5H20a1.5 1.5 0 010-3zm0 20h4.5V20a1.5 1.5 0 013 0v7.5H20a1.5 1.5 0 010-3z"/></symbol></defs></svg>
